svg/300/outlined/schema-fill.svg

<svg xmlns="http://www.w3.org/2000/svg" width="48" height="48" viewBox="0 -960 960 960"><path d="M177.694-57.694V-247.69h92.307V-385h-92.307v-189.998h92.307v-137.31h-92.307v-189.997h229.997v189.997h-92.307v137.31h92.307v72.307h184.618v-72.307h229.997V-385H592.309v-72.307H407.691V-385h-92.307v137.31h92.307v189.997H177.694Z"/></svg>

<svg xmlns="http://www.w3.org/2000/svg" width="48" height="48" viewBox="0 -960 960 960"><path d="M177.69-57.69v-190H270V-385h-92.31v-190H270v-137.31h-92.31v-190h230v190h-92.31V-575h92.31v72.31h184.62V-575h230v190h-230v-72.31H407.69V-385h-92.31v137.31h92.31v190h-230Z"/></svg>
